X: 1001
T: Allistrum's March
R: jig
M: 6/8
K: Dmajor
A/G/|Fdd fee|fdd dBA|Fdd fee|fdd B2A|
Fdd fee|fdd dBA|Fdd fee|fdd B2A||
FEE FDD|FEd dBA|FEE FDD|FEd B2A|
FEE FDD|FEd dBA|FEE FDD|FEd B2A||
d2f e2f|d2e dBA|ddf eef|dBA B2A|
d2f e2f|d2e dBA|ddf eef|dBA B2A||
B2A B2F|B2A BAF|B2A B2F|B/c/dB cAF|
B2A B2F|B2A BAF|B2A B2F|B/c/dB cAF||

